images/logo-dark.svg

<svg width="145" height="40" viewBox="0 0 145 40" fill="none" xmlns="http://www.w3.org/2000/svg">
<path d="M61.724 9.036C64.188 9.036 66.232 9.67067 67.856 10.94C69.48 12.2093 70.5533 13.936 71.076 16.12H66.932C66.5027 15.056 65.8307 14.216 64.916 13.6C64.02 12.984 62.9373 12.676 61.668 12.676C60.6227 12.676 59.68 12.9373 58.84 13.46C58 13.9827 57.3467 14.7293 56.88 15.7C56.4133 16.6707 56.18 17.8093 56.18 19.116C56.18 20.404 56.4133 21.5333 56.88 22.504C57.3467 23.4747 58 24.2213 58.84 24.744C59.68 25.2667 60.6227 25.528 61.668 25.528C62.9373 25.528 64.02 25.22 64.916 24.604C65.8307 23.988 66.5027 23.148 66.932 22.084H71.076C70.5533 24.268 69.48 25.9947 67.856 27.264C66.232 28.5333 64.188 29.168 61.724 29.168C59.8387 29.168 58.168 28.748 56.712 27.908C55.2747 27.0493 54.1547 25.8547 53.352 24.324C52.568 22.7933 52.176 21.0573 52.176 19.116C52.176 17.156 52.568 15.4107 53.352 13.88C54.1547 12.3493 55.2747 11.164 56.712 10.324C58.1493 9.46533 59.82 9.036 61.724 9.036ZM80.3661 13.292C81.8781 13.292 83.2314 13.6093 84.4261 14.244C85.6394 14.8787 86.5914 15.8027 87.2821 17.016C87.9728 18.2107 88.3181 19.62 88.3181 21.244C88.3181 22.868 87.9728 24.2773 87.2821 25.472C86.5914 26.6667 85.6394 27.5907 84.4261 28.244C83.2314 28.8787 81.8781 29.196 80.3661 29.196C78.8541 29.196 77.4914 28.8787 76.2781 28.244C75.0834 27.5907 74.1408 26.6667 73.4501 25.472C72.7594 24.2773 72.4141 22.868 72.4141 21.244C72.4141 19.62 72.7594 18.2107 73.4501 17.016C74.1408 15.8027 75.0834 14.8787 76.2781 14.244C77.4914 13.6093 78.8541 13.292 80.3661 13.292ZM80.3661 16.708C79.2648 16.708 78.3314 17.1 77.5661 17.884C76.8008 18.6493 76.4181 19.7693 76.4181 21.244C76.4181 22.7187 76.8008 23.848 77.5661 24.632C78.3314 25.3973 79.2648 25.78 80.3661 25.78C81.4674 25.78 82.4008 25.3973 83.1661 24.632C83.9314 23.848 84.3141 22.7187 84.3141 21.244C84.3141 19.7693 83.9314 18.6493 83.1661 17.884C82.4008 17.1 81.4674 16.708 80.3661 16.708ZM94.2163 8.28V29H90.2682V8.28H94.2163ZM100.896 8.28V29H96.9478V8.28H100.896ZM109.703 13.292C111.01 13.292 112.13 13.6 113.063 14.216C113.997 14.832 114.659 15.6627 115.051 16.708V13.488H118.971V29H115.051V25.752C114.659 26.7973 113.997 27.6373 113.063 28.272C112.13 28.888 111.01 29.196 109.703 29.196C108.397 29.196 107.221 28.8787 106.175 28.244C105.13 27.6093 104.309 26.6947 103.711 25.5C103.133 24.2867 102.843 22.868 102.843 21.244C102.843 19.62 103.133 18.2107 103.711 17.016C104.309 15.8027 105.13 14.8787 106.175 14.244C107.221 13.6093 108.397 13.292 109.703 13.292ZM110.935 16.736C109.703 16.736 108.714 17.1373 107.967 17.94C107.221 18.7427 106.847 19.844 106.847 21.244C106.847 22.644 107.221 23.7453 107.967 24.548C108.714 25.332 109.703 25.724 110.935 25.724C112.13 25.724 113.11 25.3227 113.875 24.52C114.659 23.6987 115.051 22.6067 115.051 21.244C115.051 19.8627 114.659 18.7707 113.875 17.968C113.11 17.1467 112.13 16.736 110.935 16.736ZM130.977 13.292C132.284 13.292 133.46 13.6093 134.505 14.244C135.551 14.8787 136.363 15.8027 136.941 17.016C137.539 18.2107 137.837 19.62 137.837 21.244C137.837 22.868 137.539 24.2867 136.941 25.5C136.363 26.6947 135.551 27.6093 134.505 28.244C133.46 28.8787 132.284 29.196 130.977 29.196C129.671 29.196 128.551 28.888 127.617 28.272C126.703 27.6373 126.049 26.7973 125.657 25.752V29H121.709V8.28H125.657V16.708C126.049 15.6627 126.703 14.832 127.617 14.216C128.551 13.6 129.671 13.292 130.977 13.292ZM129.745 16.736C128.551 16.736 127.561 17.1467 126.777 17.968C126.012 18.7707 125.629 19.8627 125.629 21.244C125.629 22.6067 126.012 23.6987 126.777 24.52C127.561 25.3227 128.551 25.724 129.745 25.724C130.977 25.724 131.967 25.332 132.713 24.548C133.46 23.7453 133.833 22.644 133.833 21.244C133.833 19.844 133.46 18.7427 132.713 17.94C131.967 17.1373 130.977 16.736 129.745 16.736Z" fill="#292930"/>
<path d="M143.067 24.884V29H138.811V24.884H143.067Z" fill="#5956E9"/>
<rect width="40" height="40" rx="11.4286" fill="#5956E9"/>
<circle opacity="0.5" cx="12.8569" cy="12.8569" r="5.71429" fill="white"/>
<circle cx="12.8569" cy="27.143" r="5.71429" fill="#FFDC60"/>
<circle cx="27.143" cy="12.8569" r="5.71429" fill="#FAB8C4"/>
<circle opacity="0.5" cx="27.143" cy="27.143" r="5.71429" fill="white"/>
</svg>

<?xml version="1.0" encoding="utf-8"?>
<!-- Generator: Adobe Illustrator 24.3.0, SVG Export Plug-In . SVG Version: 6.00 Build 0)  -->
<svg version="1.1" id="Layer_1" xmlns="http://www.w3.org/2000/svg" xmlns:xlink="http://www.w3.org/1999/xlink" x="0px" y="0px"
	 viewBox="0 0 145 40" style="enable-background:new 0 0 145 40;" xml:space="preserve">
<style type="text/css">
	.st0{display:none;fill:#292930;}
	.st1{fill:#5956E9;}
	.st2{opacity:0.5;fill:#FFFFFF;enable-background:new    ;}
	.st3{fill:#FFDC60;}
	.st4{fill:#FAB8C4;}
	.st5{font-family:'Poppins-SemiBold';}
	.st6{font-size:30.8889px;}
</style>
<path class="st0" d="M61.7,9c2.5,0,4.5,0.6,6.1,1.9c1.6,1.3,2.7,3,3.2,5.2h-4.1c-0.4-1.1-1.1-1.9-2-2.5c-0.9-0.6-2-0.9-3.2-0.9
	c-1,0-2,0.3-2.8,0.8s-1.5,1.3-2,2.2c-0.5,1-0.7,2.1-0.7,3.4c0,1.3,0.2,2.4,0.7,3.4c0.5,1,1.1,1.7,2,2.2c0.8,0.5,1.8,0.8,2.8,0.8
	c1.3,0,2.4-0.3,3.2-0.9c0.9-0.6,1.6-1.5,2-2.5h4.1c-0.5,2.2-1.6,3.9-3.2,5.2s-3.7,1.9-6.1,1.9c-1.9,0-3.6-0.4-5-1.3
	c-1.4-0.9-2.6-2.1-3.4-3.6c-0.8-1.5-1.2-3.3-1.2-5.2c0-2,0.4-3.7,1.2-5.2c0.8-1.5,1.9-2.7,3.4-3.6C58.1,9.5,59.8,9,61.7,9z
	 M80.4,13.3c1.5,0,2.9,0.3,4.1,1c1.2,0.6,2.2,1.6,2.9,2.8c0.7,1.2,1,2.6,1,4.2c0,1.6-0.3,3-1,4.2c-0.7,1.2-1.6,2.1-2.9,2.8
	c-1.2,0.6-2.5,1-4.1,1c-1.5,0-2.9-0.3-4.1-1c-1.2-0.7-2.1-1.6-2.8-2.8c-0.7-1.2-1-2.6-1-4.2c0-1.6,0.3-3,1-4.2
	c0.7-1.2,1.6-2.1,2.8-2.8C77.5,13.6,78.9,13.3,80.4,13.3z M80.4,16.7c-1.1,0-2,0.4-2.8,1.2c-0.8,0.8-1.1,1.9-1.1,3.4
	c0,1.5,0.4,2.6,1.1,3.4c0.8,0.8,1.7,1.1,2.8,1.1c1.1,0,2-0.4,2.8-1.1c0.8-0.8,1.1-1.9,1.1-3.4c0-1.5-0.4-2.6-1.1-3.4
	C82.4,17.1,81.5,16.7,80.4,16.7z M94.2,8.3V29h-3.9V8.3H94.2z M100.9,8.3V29h-3.9V8.3H100.9z M109.7,13.3c1.3,0,2.4,0.3,3.4,0.9
	c0.9,0.6,1.6,1.4,2,2.5v-3.2h3.9V29h-3.9v-3.2c-0.4,1-1.1,1.9-2,2.5c-0.9,0.6-2.1,0.9-3.4,0.9c-1.3,0-2.5-0.3-3.5-1
	c-1-0.6-1.9-1.5-2.5-2.7c-0.6-1.2-0.9-2.6-0.9-4.3c0-1.6,0.3-3,0.9-4.2c0.6-1.2,1.4-2.1,2.5-2.8C107.2,13.6,108.4,13.3,109.7,13.3z
	 M110.9,16.7c-1.2,0-2.2,0.4-3,1.2c-0.7,0.8-1.1,1.9-1.1,3.3s0.4,2.5,1.1,3.3c0.7,0.8,1.7,1.2,3,1.2c1.2,0,2.2-0.4,2.9-1.2
	c0.8-0.8,1.2-1.9,1.2-3.3c0-1.4-0.4-2.5-1.2-3.3C113.1,17.1,112.1,16.7,110.9,16.7z M131,13.3c1.3,0,2.5,0.3,3.5,1
	c1,0.6,1.9,1.6,2.4,2.8c0.6,1.2,0.9,2.6,0.9,4.2c0,1.6-0.3,3-0.9,4.3c-0.6,1.2-1.4,2.1-2.4,2.7c-1,0.6-2.2,1-3.5,1
	c-1.3,0-2.4-0.3-3.4-0.9c-0.9-0.6-1.6-1.5-2-2.5V29h-3.9V8.3h3.9v8.4c0.4-1,1-1.9,2-2.5C128.6,13.6,129.7,13.3,131,13.3z
	 M129.7,16.7c-1.2,0-2.2,0.4-3,1.2c-0.8,0.8-1.1,1.9-1.1,3.3c0,1.4,0.4,2.5,1.1,3.3c0.8,0.8,1.8,1.2,3,1.2c1.2,0,2.2-0.4,3-1.2
	c0.7-0.8,1.1-1.9,1.1-3.3s-0.4-2.5-1.1-3.3C132,17.1,131,16.7,129.7,16.7z"/>
<path class="st1" d="M143.1,24.9V29h-4.3v-4.1H143.1z"/>
<path class="st1" d="M11.4,0h17.1C34.9,0,40,5.1,40,11.4v17.1C40,34.9,34.9,40,28.6,40H11.4C5.1,40,0,34.9,0,28.6V11.4
	C0,5.1,5.1,0,11.4,0z"/>
<circle class="st2" cx="12.9" cy="12.9" r="5.7"/>
<circle class="st3" cx="12.9" cy="27.1" r="5.7"/>
<circle class="st4" cx="27.1" cy="12.9" r="5.7"/>
<circle class="st2" cx="27.1" cy="27.1" r="5.7"/>
<text transform="matrix(1 0 0 1 51.8152 29.0357)" class="st5 st6">Spica</text>
</svg>
